X: 162
M: 6/8
L: 1/8
K: D
V: 1
|:\
|:\
d2e f2f | e2d (TcBA) | d2e fdg | Te3 A3 |\
dcd efg | fed (Tc>BA) | (B/c/d)B AFA | B3 d3 :|
V: 2 clef=bass middle=d
|:\
d3 d3 | d3 d3 | d3 d3 | d3 d3 |\
d3 d3 | d3 d3 | d3 d3 | d3 d3 :|
|:\
d3 d3 | A3 A3 | d3 d3 | a3 a3 |\
d'3 c'3 | d'3 a3 | g3 f3 | g3 d3 :|

